packages/foundations/assets/icons/functional/images/environment/sun_12.svg

<svg width="12" height="12" viewBox="0 0 12 12" fill="none" xmlns="http://www.w3.org/2000/svg">
<g clip-path="url(#clip0_232_217)">
<path fill-rule="evenodd" clip-rule="evenodd" d="M6.00001 9.00001C6.33138 9.00001 6.60001 9.26864 6.60001 9.60001V10.2C6.60001 10.5314 6.33138 10.8 6.00001 10.8C5.66864 10.8 5.40001 10.5314 5.40001 10.2V9.60001C5.40001 9.26864 5.66864 9.00001 6.00001 9.00001ZM8.96986 8.12133L9.39412 8.5456C9.62844 8.77991 9.62844 9.15981 9.39412 9.39412C9.15981 9.62844 8.77991 9.62844 8.5456 9.39412L8.12133 8.96986C7.88702 8.73555 7.88702 8.35565 8.12133 8.12133C8.35565 7.88702 8.73555 7.88702 8.96986 8.12133ZM3.87869 8.12133C4.11301 8.35565 4.11301 8.73555 3.87869 8.96986L3.45443 9.39412C3.37632 9.47223 3.28204 9.5243 3.18237 9.55033L3.0813 9.56769H2.97903C2.84294 9.55612 2.71004 9.49827 2.6059 9.39412C2.37159 9.15981 2.37159 8.77991 2.6059 8.5456L3.03016 8.12133C3.26448 7.88702 3.64438 7.88702 3.87869 8.12133ZM6.00001 3.60001C7.3255 3.60001 8.40001 4.67453 8.40001 6.00001C8.40001 7.3255 7.3255 8.40001 6.00001 8.40001C4.67453 8.40001 3.60001 7.3255 3.60001 6.00001C3.60001 4.67453 4.67453 3.60001 6.00001 3.60001ZM6.00001 4.80001C5.33727 4.80001 4.80001 5.33727 4.80001 6.00001C4.80001 6.66275 5.33727 7.20001 6.00001 7.20001C6.66275 7.20001 7.20001 6.66275 7.20001 6.00001C7.20001 5.33727 6.66275 4.80001 6.00001 4.80001ZM10.2 5.40001C10.5314 5.40001 10.8 5.66864 10.8 6.00001C10.8 6.33138 10.5314 6.60001 10.2 6.60001H9.60001C9.26864 6.60001 9.00001 6.33138 9.00001 6.00001C9.00001 5.66864 9.26864 5.40001 9.60001 5.40001H10.2ZM2.40001 5.40001C2.73138 5.40001 3.00001 5.66864 3.00001 6.00001C3.00001 6.33138 2.73138 6.60001 2.40001 6.60001H1.80001C1.46864 6.60001 1.20001 6.33138 1.20001 6.00001C1.20001 5.66864 1.46864 5.40001 1.80001 5.40001H2.40001ZM3.45443 2.6059L3.87869 3.03016C4.11301 3.26448 4.11301 3.64438 3.87869 3.87869C3.64438 4.11301 3.26448 4.11301 3.03016 3.87869L2.6059 3.45443C2.37159 3.22011 2.37159 2.84021 2.6059 2.6059C2.84021 2.37159 3.22011 2.37159 3.45443 2.6059ZM9.39412 2.6059C9.62844 2.84021 9.62844 3.22011 9.39412 3.45443L8.96986 3.87869C8.89176 3.9568 8.79748 4.00887 8.6978 4.0349L8.59673 4.05226H8.49446C8.35837 4.04069 8.22547 3.98283 8.12133 3.87869C7.88702 3.64438 7.88702 3.26448 8.12133 3.03016L8.5456 2.6059C8.77991 2.37159 9.15981 2.37159 9.39412 2.6059ZM6.00001 1.20001C6.33138 1.20001 6.60001 1.46864 6.60001 1.80001V2.40001C6.60001 2.73138 6.33138 3.00001 6.00001 3.00001C5.66864 3.00001 5.40001 2.73138 5.40001 2.40001V1.80001C5.40001 1.46864 5.66864 1.20001 6.00001 1.20001Z" fill="#1A1C1F"/>
</g>
<defs>
<clipPath id="clip0_232_217">
<rect width="12" height="12" fill="white"/>
</clipPath>
</defs>
</svg>

<svg xmlns="http://www.w3.org/2000/svg" width="12" height="12" fill="none"><g clip-path="url(#a)"><path fill="#1A1C1F" fill-rule="evenodd" d="M6 9a.6.6 0 0 1 .6.6v.6a.6.6 0 1 1-1.2 0v-.6A.6.6 0 0 1 6 9m2.97-.879.424.425a.6.6 0 1 1-.848.848L8.12 8.97a.6.6 0 0 1 .849-.849m-5.091 0a.6.6 0 0 1 0 .849l-.425.424a.6.6 0 0 1-.272.156l-.1.018h-.103a.6.6 0 0 1-.373-1.022l.424-.425a.6.6 0 0 1 .849 0M6 3.6a2.4 2.4 0 1 1 0 4.8 2.4 2.4 0 0 1 0-4.8m0 1.2a1.2 1.2 0 1 0 0 2.4 1.2 1.2 0 0 0 0-2.4m4.2.6a.6.6 0 1 1 0 1.2h-.6a.6.6 0 0 1 0-1.2zm-7.8 0a.6.6 0 0 1 0 1.2h-.6a.6.6 0 0 1 0-1.2zm1.054-2.794.425.424a.6.6 0 1 1-.849.849l-.424-.425a.6.6 0 0 1 .848-.848m5.94 0a.6.6 0 0 1 0 .848l-.424.425a.6.6 0 0 1-.272.156l-.101.017h-.103a.6.6 0 0 1-.373-1.022l.425-.424a.6.6 0 0 1 .848 0M6 1.2a.6.6 0 0 1 .6.6v.6a.6.6 0 0 1-1.2 0v-.6a.6.6 0 0 1 .6-.6" clip-rule="evenodd"/></g><defs><clipPath id="a"><path fill="#fff" d="M0 0h12v12H0z"/></clipPath></defs></svg>
